public/google_signin_buttons/web/vector/btn_google_light_normal_ios.svg

<?xml version="1.0" encoding="UTF-8" standalone="no"?>
<svg width="46px" height="46px" viewBox="0 0 46 46" version="1.1" xmlns="http://www.w3.org/2000/svg" xmlns:xlink="http://www.w3.org/1999/xlink" xmlns:sketch="http://www.bohemiancoding.com/sketch/ns">
    <!-- Generator: Sketch 3.3.3 (12081) - http://www.bohemiancoding.com/sketch -->
    <title>btn_google_light_normal_ios</title>
    <desc>Created with Sketch.</desc>
    <defs>
        <filter x="-50%" y="-50%" width="200%" height="200%" filterUnits="objectBoundingBox" id="filter-1">
            <feOffset dx="0" dy="1" in="SourceAlpha" result="shadowOffsetOuter1"></feOffset>
            <feGaussianBlur stdDeviation="0.5" in="shadowOffsetOuter1" result="shadowBlurOuter1"></feGaussianBlur>
            <feColorMatrix values="0 0 0 0 0   0 0 0 0 0   0 0 0 0 0  0 0 0 0.168 0" in="shadowBlurOuter1" type="matrix" result="shadowMatrixOuter1"></feColorMatrix>
            <feOffset dx="0" dy="0" in="SourceAlpha" result="shadowOffsetOuter2"></feOffset>
            <feGaussianBlur stdDeviation="0.5" in="shadowOffsetOuter2" result="shadowBlurOuter2"></feGaussianBlur>
            <feColorMatrix values="0 0 0 0 0   0 0 0 0 0   0 0 0 0 0  0 0 0 0.084 0" in="shadowBlurOuter2" type="matrix" result="shadowMatrixOuter2"></feColorMatrix>
            <feMerge>
                <feMergeNode in="shadowMatrixOuter1"></feMergeNode>
                <feMergeNode in="shadowMatrixOuter2"></feMergeNode>
                <feMergeNode in="SourceGraphic"></feMergeNode>
            </feMerge>
        </filter>
        <rect id="path-2" x="0" y="0" width="40" height="40" rx="2"></rect>
    </defs>
    <g id="Google-Button" stroke="none" stroke-width="1" fill="none" fill-rule="evenodd" sketch:type="MSPage">
        <g id="9-PATCH" sketch:type="MSArtboardGroup" transform="translate(-608.000000, -160.000000)"></g>
        <g id="btn_google_light_normal" sketch:type="MSArtboardGroup" transform="translate(-1.000000, -1.000000)">
            <g id="button" sketch:type="MSLayerGroup" transform="translate(4.000000, 4.000000)" filter="url(#filter-1)">
                <g id="button-bg">
                    <use fill="#FFFFFF" fill-rule="evenodd" sketch:type="MSShapeGroup" xlink:href="#path-2"></use>
                    <use fill="none" xlink:href="#path-2"></use>
                    <use fill="none" xlink:href="#path-2"></use>
                    <use fill="none" xlink:href="#path-2"></use>
                </g>
            </g>
            <g id="logo_googleg_48dp" sketch:type="MSLayerGroup" transform="translate(15.000000, 15.000000)">
                <path d="M17.64,9.20454545 C17.64,8.56636364 17.5827273,7.95272727 17.4763636,7.36363636 L9,7.36363636 L9,10.845 L13.8436364,10.845 C13.635,11.97 13.0009091,12.9231818 12.0477273,13.5613636 L12.0477273,15.8195455 L14.9563636,15.8195455 C16.6581818,14.2527273 17.64,11.9454545 17.64,9.20454545 L17.64,9.20454545 Z" id="Shape" fill="#4285F4" sketch:type="MSShapeGroup"></path>
                <path d="M9,18 C11.43,18 13.4672727,17.1940909 14.9563636,15.8195455 L12.0477273,13.5613636 C11.2418182,14.1013636 10.2109091,14.4204545 9,14.4204545 C6.65590909,14.4204545 4.67181818,12.8372727 3.96409091,10.71 L0.957272727,10.71 L0.957272727,13.0418182 C2.43818182,15.9831818 5.48181818,18 9,18 L9,18 Z" id="Shape" fill="#34A853" sketch:type="MSShapeGroup"></path>
                <path d="M3.96409091,10.71 C3.78409091,10.17 3.68181818,9.59318182 3.68181818,9 C3.68181818,8.40681818 3.78409091,7.83 3.96409091,7.29 L3.96409091,4.95818182 L0.957272727,4.95818182 C0.347727273,6.17318182 0,7.54772727 0,9 C0,10.4522727 0.347727273,11.8268182 0.957272727,13.0418182 L3.96409091,10.71 L3.96409091,10.71 Z" id="Shape" fill="#FBBC05" sketch:type="MSShapeGroup"></path>
                <path d="M9,3.57954545 C10.3213636,3.57954545 11.5077273,4.03363636 12.4404545,4.92545455 L15.0218182,2.34409091 C13.4631818,0.891818182 11.4259091,0 9,0 C5.48181818,0 2.43818182,2.01681818 0.957272727,4.95818182 L3.96409091,7.29 C4.67181818,5.16272727 6.65590909,3.57954545 9,3.57954545 L9,3.57954545 Z" id="Shape" fill="#EA4335" sketch:type="MSShapeGroup"></path>
                <path d="M0,0 L18,0 L18,18 L0,18 L0,0 Z" id="Shape" sketch:type="MSShapeGroup"></path>
            </g>
            <g id="handles_square" sketch:type="MSLayerGroup"></g>
        </g>
    </g>
</svg>

<?xml version="1.0" encoding="UTF-8" standalone="no"?>
<svg
   width="46px"
   height="46px"
   viewBox="0 0 46 46"
   version="1.1"
   id="svg1477"
   sodipodi:docname="btn_google_light_normal_ios.svg"
   inkscape:version="1.2.2 (1:1.2.2+202305151914+b0a8486541)"
   xmlns:inkscape="http://www.inkscape.org/namespaces/inkscape"
   xmlns:sodipodi="http://sodipodi.sourceforge.net/DTD/sodipodi-0.dtd"
   xmlns="http://www.w3.org/2000/svg"
   xmlns:svg="http://www.w3.org/2000/svg"
   xmlns:sketch="http://www.bohemiancoding.com/sketch/ns">
  <sodipodi:namedview
     id="namedview1479"
     pagecolor="#ffffff"
     bordercolor="#000000"
     borderopacity="0.25"
     inkscape:showpageshadow="2"
     inkscape:pageopacity="0.0"
     inkscape:pagecheckerboard="0"
     inkscape:deskcolor="#d1d1d1"
     showgrid="false"
     inkscape:zoom="22.326087"
     inkscape:cx="23.022395"
     inkscape:cy="23.044791"
     inkscape:window-width="3438"
     inkscape:window-height="1398"
     inkscape:window-x="0"
     inkscape:window-y="20"
     inkscape:window-maximized="1"
     inkscape:current-layer="btn_google_light_normal" />
  <!-- Generator: Sketch 3.3.3 (12081) - http://www.bohemiancoding.com/sketch -->
  <title
     id="title1425">btn_google_light_normal_ios</title>
  <desc
     id="desc1427">Created with Sketch.</desc>
  <defs
     id="defs1451">
    <filter
       x="-0.06"
       y="-0.06"
       width="1.12"
       height="1.145"
       filterUnits="objectBoundingBox"
       id="filter-1">
      <feOffset
         dx="0"
         dy="1"
         in="SourceAlpha"
         result="shadowOffsetOuter1"
         id="feOffset1429" />
      <feGaussianBlur
         stdDeviation="0.5"
         in="shadowOffsetOuter1"
         result="shadowBlurOuter1"
         id="feGaussianBlur1431" />
      <feColorMatrix
         values="0 0 0 0 0   0 0 0 0 0   0 0 0 0 0  0 0 0 0.168 0"
         in="shadowBlurOuter1"
         type="matrix"
         result="shadowMatrixOuter1"
         id="feColorMatrix1433" />
      <feOffset
         dx="0"
         dy="0"
         in="SourceAlpha"
         result="shadowOffsetOuter2"
         id="feOffset1435" />
      <feGaussianBlur
         stdDeviation="0.5"
         in="shadowOffsetOuter2"
         result="shadowBlurOuter2"
         id="feGaussianBlur1437" />
      <feColorMatrix
         values="0 0 0 0 0   0 0 0 0 0   0 0 0 0 0  0 0 0 0.084 0"
         in="shadowBlurOuter2"
         type="matrix"
         result="shadowMatrixOuter2"
         id="feColorMatrix1439" />
      <feMerge
         id="feMerge1447">
        <feMergeNode
           in="shadowMatrixOuter1"
           id="feMergeNode1441" />
        <feMergeNode
           in="shadowMatrixOuter2"
           id="feMergeNode1443" />
        <feMergeNode
           in="SourceGraphic"
           id="feMergeNode1445" />
      </feMerge>
    </filter>
    <rect
       id="path-2"
       x="0"
       y="0"
       width="40"
       height="40"
       rx="2" />
  </defs>
  <g
     id="Google-Button"
     stroke="none"
     stroke-width="1"
     fill="none"
     fill-rule="evenodd"
     sketch:type="MSPage">
    <g
       id="9-PATCH"
       sketch:type="MSArtboardGroup"
       transform="translate(-608.000000, -160.000000)" />
    <g
       id="btn_google_light_normal"
       sketch:type="MSArtboardGroup"
       transform="translate(-1.000000, -1.000000)">
      <g
         id="button"
         sketch:type="MSLayerGroup"
         transform="translate(4.000000, 4.000000)"
         filter="url(#filter-1)" />
      <g
         id="logo_googleg_48dp"
         sketch:type="MSLayerGroup"
         transform="matrix(2.5,0,0,2.5,1.5,1.5)">
        <path
           d="m 17.64,9.2045455 c 0,-0.6381819 -0.05727,-1.2518182 -0.163636,-1.8409091 H 9 V 10.845 h 4.843636 C 13.635,11.97 13.000909,12.923182 12.047727,13.561364 v 2.258182 h 2.908637 C 16.658182,14.252727 17.64,11.945455 17.64,9.2045455 Z"
           id="Shape"
           fill="#4285f4"
           sketch:type="MSShapeGroup" />
        <path
           d="m 9,18 c 2.43,0 4.467273,-0.805909 5.956364,-2.180454 L 12.047727,13.561364 C 11.241818,14.101364 10.210909,14.420455 9,14.420455 6.6559091,14.420455 4.6718182,12.837273 3.9640909,10.71 H 0.95727273 v 2.331818 C 2.4381818,15.983182 5.4818182,18 9,18 Z"
           id="path1465"
           fill="#34a853"
           sketch:type="MSShapeGroup" />
        <path
           d="M 3.9640909,10.71 C 3.7840909,10.17 3.6818182,9.5931818 3.6818182,9 c 0,-0.5931818 0.1022727,-1.17 0.2822727,-1.71 V 4.9581818 H 0.95727273 C 0.34772727,6.1731818 0,7.5477273 0,9 c 0,1.452273 0.34772727,2.826818 0.95727273,4.041818 z"
           id="path1467"
           fill="#fbbc05"
           sketch:type="MSShapeGroup" />
        <path
           d="m 9,3.5795455 c 1.321364,0 2.507727,0.4540909 3.440455,1.3459091 L 15.021818,2.3440909 C 13.463182,0.89181818 11.425909,0 9,0 5.4818182,0 2.4381818,2.0168182 0.95727273,4.9581818 L 3.9640909,7.29 C 4.6718182,5.1627273 6.6559091,3.5795455 9,3.5795455 Z"
           id="path1469"
           fill="#ea4335"
           sketch:type="MSShapeGroup" />
        <path
           d="M 0,0 H 18 V 18 H 0 Z"
           id="path1471"
           sketch:type="MSShapeGroup" />
      </g>
      <g
         id="handles_square"
         sketch:type="MSLayerGroup" />
    </g>
  </g>
</svg>
